assets/symbols/mulberry/corner_cabinet.svg

<svg height="850.394" viewBox="0 0 850.394 850.394" width="850.394" xmlns="http://www.w3.org/2000/svg"><path d="m264.41 232.62h315.78v104.11h-315.78zm316.35 469.66v1.13h-316.92v-328.35h316.92zm-346.09 41.75h53.77v45.76h-53.77zm321.5.01h53.771v45.76h-53.771z" fill="#9e5c26"/><g fill="#f6cc4b"><path d="m696.89 676.06 10.29 2.75v34.33l-91.52 29.75h-202.51v-.01h-184.2l-91.53-29.74v-34.33l10.3-2.76 2.47-.65 86.2 28.01h375.49l84.55-27.48z"/><path d="m696.43 675.93-84.55 27.48h-31.12v-328.35h-316.92v328.35h-27.45l-86.2-28.01-2.47-.811v-497.809l73.22 23.8h402.73l73.22-23.8v499zm-116.24-339.2v-104.11h-315.78v104.11z"/><path d="m696.89 176.78-73.22 23.8h-402.73l-73.22-23.8-18.31-5.95v-34.32l1.53-.41 92.78 30.15h402.31l89.16-28.97v33.55z"/><path d="m715.19 136.51v.77l-89.16 28.97h-402.31l-92.78-30.15 290.42-78.1z"/></g><g fill="none" stroke="#231f20"><path d="m424.02 57.28-2.66.72-290.42 78.1-1.53.41v34.32l18.31 5.95 73.22 23.8h200.22m-264.45 473.07-6.52 1.75-2.47.65-10.3 2.76v34.33l91.53 29.74h202.51m-283.74-568.61v509.12m86.95 60.64h53.77v45.76h-53.77z" stroke-width="21"/><path d="m146.23 674.11 1.49.48 2.47.81 86.2 28.01h172.98m292.67-29.3-5.15 1.67-.46.15-84.55 27.48h-202.51m-282.25-568.55 3.82 1.24 92.78 30.15h185.34m313.57-31.39-7.44 2.42-89.16 28.97h-216.97" stroke-width="14"/><path d="m418.15 57.14 3.21.86 293.83 78.51v34.32l-18.3 5.95-73.22 23.8h-202.51m266.73 473.07 8.54 2.28.46.13 10.29 2.75v34.33l-91.52 29.75h-202.51m283.74-568.62v509.13m-140.72 60.64h53.771v45.76h-53.771z" stroke-width="21"/><path d="m263.84 702.28v-327.22h316.92v327.22" stroke-width="21"/><g stroke-linecap="round"><path d="m526.99 418.53v137.3m-173.88-273.44h137.29" stroke-width="27.459"/><path d="m264.41 232.62h315.78v104.11h-315.78z" stroke-width="21"/></g></g><path d="m0 0h850.394v850.394h-850.394z" fill="none"/></svg>

<svg xmlns="http://www.w3.org/2000/svg" width="850.394" height="850.394" viewBox="0 0 850.394 850.394" overflow="visible"><path fill="#9e5c26" d="M264.41 232.62h315.78v104.11H264.41zM580.76 702.28v1.13H263.84V375.06h316.92zM234.67 744.03h53.77v45.76h-53.77zM556.17 744.04h53.771v45.76H556.17z"/><path fill="#f6cc4b" d="M696.89 676.06l10.29 2.75v34.33l-91.52 29.75H413.15v-.01h-184.2l-91.53-29.74v-34.33l10.3-2.76 2.47-.65 86.2 28.01h375.49l84.55-27.48z"/><path d="M696.43 675.93l-84.55 27.48h-31.12V375.06H263.84v328.35h-27.45l-86.2-28.01-2.47-.811V176.78l73.22 23.8h402.73l73.22-23.8v499l-.46.15zm-116.24-339.2V232.62H264.41v104.11h315.78z" fill="#f6cc4b"/><path fill="#f6cc4b" d="M696.89 176.78l-73.22 23.8H220.94l-73.22-23.8-18.31-5.95v-34.32l1.53-.41 92.78 30.15H626.03l89.16-28.97v33.55z"/><path fill="#f6cc4b" d="M715.19 136.51v.77l-89.16 28.97H223.72l-92.78-30.15L421.36 58z"/><g fill="none" stroke="#231f20"><path stroke-width="21" d="M424.02 57.28l-2.66.72-290.42 78.1-1.53.41v34.32l18.31 5.95 73.22 23.8h200.22M156.71 673.65l-6.52 1.75-2.47.65-10.3 2.76v34.33l91.53 29.74h202.51M147.72 174.27V683.39M234.67 744.03h53.77v45.76h-53.77z"/><path stroke-width="14" d="M146.23 674.11l1.49.48 2.47.81 86.2 28.01h172.98M702.04 674.11l-5.15 1.67-.46.15-84.55 27.48H409.37M127.12 134.86l3.82 1.24 92.78 30.15h185.34M722.63 134.86l-7.44 2.42-89.16 28.97H409.06"/><path stroke-width="21" d="M418.15 57.14l3.21.86 293.83 78.51v34.32l-18.3 5.95-73.22 23.8H421.16M687.89 673.65l8.54 2.28.46.13 10.29 2.75v34.33l-91.52 29.75H413.15M696.89 174.27V683.4M556.17 744.04h53.771v45.76H556.17z"/><path stroke-width="21" d="M263.84 702.28V375.06h316.92v327.22"/><path stroke-width="27.459" stroke-linecap="round" d="M526.99 418.53v137.3M353.11 282.39H490.4"/><path stroke-width="21" stroke-linecap="round" d="M264.41 232.62h315.78v104.11H264.41z"/></g><path fill="none" d="M0 0h850.394v850.394H0z"/></svg>
